X: 20901
M: 3/4
L: 1/8
K: C
c2 (ed)(ed) | c2 c2 d2 | e2 (gf)(gf) | {f}e4 (ef) |\
g2 (ag)(ag) | f>g a2 zf | e2 (gf) (fe) | {e}d4 :|\
|: e2 |\
d2 (de) (de) | f2 f2 (gf) |
e2 egag | g4 e2 |\
d2 c2 f2 | e2 d2 c'g | f2e2 (g/f/e/d/) | c4 zg |\


